X:56
T:Charming Sally. JJo.056
B:J.Johnson Choice Collection Vol 8 1758
Z:vmp.Simon Wilson 2013 www.village-music-project.org.uk
Z:Dance added by John Chambers 2017
M:2/4
L:1/8
%Q:1/2=80
K:A
|:\
cAec | aecA | BEGB | dgbg |\
cAec | af^da | gbB^d | e4 :|
|:\
ecAd | f^dBe | geca | (3gba (3gfe |\
cAec | fdcB | ceEG | A4 :|
%%begintext align
%% The 1st Cu. cast off one Cu. and turn .|
%% cast up again and turn ..| Right hands
%% across with the 2d Cu. .| then Left hands
%% back again ..| set across and turn .| the
%% Wo. do the same .| cross over half
%% figure .| and Right and Left ..|
%%endtext
